images/3235195.svg

<?xml version="1.0" encoding="UTF-8"?>
<svg xmlns="http://www.w3.org/2000/svg" xmlns:xlink="http://www.w3.org/1999/xlink" width="300pt" height="300pt" viewBox="0 0 300 300" version="1.1">
<defs>
<g>
<symbol overflow="visible" id="glyph0-0">
<path style="stroke:none;" d="M 0.546875 1.9375 L 0.546875 -7.75 L 6.046875 -7.75 L 6.046875 1.9375 Z M 1.171875 1.328125 L 5.4375 1.328125 L 5.4375 -7.140625 L 1.171875 -7.140625 Z M 1.171875 1.328125 "/>
</symbol>
<symbol overflow="visible" id="glyph0-1">
<path style="stroke:none;" d="M 1.078125 -8.015625 L 2.546875 -8.015625 L 6.09375 -1.3125 L 6.09375 -8.015625 L 7.15625 -8.015625 L 7.15625 0 L 5.6875 0 L 2.125 -6.703125 L 2.125 0 L 1.078125 0 Z M 1.078125 -8.015625 "/>
</symbol>
<symbol overflow="visible" id="glyph0-2">
<path style="stroke:none;" d="M 1.078125 -8.015625 L 2.171875 -8.015625 L 2.171875 -4.734375 L 6.109375 -4.734375 L 6.109375 -8.015625 L 7.1875 -8.015625 L 7.1875 0 L 6.109375 0 L 6.109375 -3.8125 L 2.171875 -3.8125 L 2.171875 0 L 1.078125 0 Z M 1.078125 -8.015625 "/>
</symbol>
</g>
</defs>
<g id="surface53133">
<rect x="0" y="0" width="300" height="300" style="fill:rgb(100%,100%,100%);fill-opacity:1;stroke:none;"/>
<path style="fill:none;stroke-width:1.2;stroke-linecap:butt;stroke-linejoin:miter;stroke:rgb(0%,0%,0%);stroke-opacity:1;stroke-miterlimit:10;" d="M 203.933594 88.707031 L 211.535156 100.738281 "/>
<path style="fill:none;stroke-width:1.2;stroke-linecap:butt;stroke-linejoin:miter;stroke:rgb(0%,0%,100%);stroke-opacity:1;stroke-miterlimit:10;" d="M 211.535156 100.738281 L 219.136719 112.769531 "/>
<path style="fill:none;stroke-width:1.2;stroke-linecap:butt;stroke-linejoin:miter;stroke:rgb(0%,0%,100%);stroke-opacity:1;stroke-miterlimit:10;" d="M 219.136719 112.769531 L 212.519531 125.367188 "/>
<path style="fill:none;stroke-width:1.2;stroke-linecap:butt;stroke-linejoin:miter;stroke:rgb(0%,0%,0%);stroke-opacity:1;stroke-miterlimit:10;" d="M 212.519531 125.367188 L 205.898438 137.96875 "/>
<path style=" stroke:none;fill-rule:nonzero;fill:rgb(100%,100%,100%);fill-opacity:1;" d="M 211.136719 106.269531 L 228.136719 106.269531 L 228.136719 119.269531 L 211.136719 119.269531 Z M 211.136719 106.269531 "/>
<g style="fill:rgb(0%,0%,100%);fill-opacity:1;">
  <use xlink:href="#glyph0-1" x="211.136719" y="116.170898"/>
  <use xlink:href="#glyph0-2" x="219.120117" y="116.170898"/>
</g>
<path style="fill:none;stroke-width:1.2;stroke-linecap:butt;stroke-linejoin:miter;stroke:rgb(0%,0%,0%);stroke-opacity:1;stroke-miterlimit:10;" d="M 205.898438 137.96875 L 191.679688 138.535156 "/>
<path style="fill:none;stroke-width:1.2;stroke-linecap:butt;stroke-linejoin:miter;stroke:rgb(0%,0%,100%);stroke-opacity:1;stroke-miterlimit:10;" d="M 191.679688 138.535156 L 177.457031 139.105469 "/>
<path style="fill:none;stroke-width:1.2;stroke-linecap:butt;stroke-linejoin:miter;stroke:rgb(0%,0%,0%);stroke-opacity:1;stroke-miterlimit:10;" d="M 203.324219 144.773438 L 191.945312 145.230469 "/>
<path style="fill:none;stroke-width:1.2;stroke-linecap:butt;stroke-linejoin:miter;stroke:rgb(0%,0%,100%);stroke-opacity:1;stroke-miterlimit:10;" d="M 191.945312 145.230469 L 180.570312 145.683594 "/>
<path style="fill:none;stroke-width:1.2;stroke-linecap:butt;stroke-linejoin:miter;stroke:rgb(0%,0%,0%);stroke-opacity:1;stroke-miterlimit:10;" d="M 221.105469 162.03125 L 205.898438 137.96875 "/>
<path style="fill:none;stroke-width:1.2;stroke-linecap:butt;stroke-linejoin:miter;stroke:rgb(0%,0%,100%);stroke-opacity:1;stroke-miterlimit:10;" d="M 177.457031 139.105469 L 170.839844 151.703125 "/>
<path style="fill:none;stroke-width:1.2;stroke-linecap:butt;stroke-linejoin:miter;stroke:rgb(0%,0%,0%);stroke-opacity:1;stroke-miterlimit:10;" d="M 170.839844 151.703125 L 164.222656 164.304688 "/>
<path style=" stroke:none;fill-rule:nonzero;fill:rgb(100%,100%,100%);fill-opacity:1;" d="M 173.457031 132.605469 L 181.457031 132.605469 L 181.457031 145.605469 L 173.457031 145.605469 Z M 173.457031 132.605469 "/>
<g style="fill:rgb(0%,0%,100%);fill-opacity:1;">
  <use xlink:href="#glyph0-1" x="173.457031" y="142.506836"/>
</g>
<path style="fill:none;stroke-width:1.2;stroke-linecap:butt;stroke-linejoin:miter;stroke:rgb(0%,0%,0%);stroke-opacity:1;stroke-miterlimit:10;" d="M 164.222656 164.304688 L 171.824219 176.335938 "/>
<path style="fill:none;stroke-width:1.2;stroke-linecap:butt;stroke-linejoin:miter;stroke:rgb(0%,0%,100%);stroke-opacity:1;stroke-miterlimit:10;" d="M 171.824219 176.335938 L 179.425781 188.367188 "/>
<path style="fill:none;stroke-width:1.2;stroke-linecap:butt;stroke-linejoin:miter;stroke:rgb(0%,0%,0%);stroke-opacity:1;stroke-miterlimit:10;" d="M 171.402344 163.132812 L 177.484375 172.757812 "/>
<path style="fill:none;stroke-width:1.2;stroke-linecap:butt;stroke-linejoin:miter;stroke:rgb(0%,0%,100%);stroke-opacity:1;stroke-miterlimit:10;" d="M 177.484375 172.757812 L 183.566406 182.382812 "/>
<path style="fill:none;stroke-width:1.2;stroke-linecap:butt;stroke-linejoin:miter;stroke:rgb(0%,0%,0%);stroke-opacity:1;stroke-miterlimit:10;" d="M 164.222656 164.304688 L 135.777344 165.441406 "/>
<path style="fill:none;stroke-width:1.2;stroke-linecap:butt;stroke-linejoin:miter;stroke:rgb(0%,0%,100%);stroke-opacity:1;stroke-miterlimit:10;" d="M 179.425781 188.367188 L 193.644531 187.796875 "/>
<path style="fill:none;stroke-width:1.2;stroke-linecap:butt;stroke-linejoin:miter;stroke:rgb(0%,0%,0%);stroke-opacity:1;stroke-miterlimit:10;" d="M 193.644531 187.796875 L 207.867188 187.230469 "/>
<path style=" stroke:none;fill-rule:nonzero;fill:rgb(100%,100%,100%);fill-opacity:1;" d="M 175.425781 181.867188 L 183.425781 181.867188 L 183.425781 194.867188 L 175.425781 194.867188 Z M 175.425781 181.867188 "/>
<g style="fill:rgb(0%,0%,100%);fill-opacity:1;">
  <use xlink:href="#glyph0-1" x="175.425781" y="191.768555"/>
</g>
<path style="fill:none;stroke-width:1.2;stroke-linecap:butt;stroke-linejoin:miter;stroke:rgb(0%,0%,0%);stroke-opacity:1;stroke-miterlimit:10;" d="M 207.867188 187.230469 L 223.070312 211.292969 "/>
<path style="fill:none;stroke-width:1.2;stroke-linecap:butt;stroke-linejoin:miter;stroke:rgb(0%,0%,0%);stroke-opacity:1;stroke-miterlimit:10;" d="M 215.050781 186.058594 L 227.214844 205.308594 "/>
<path style="fill:none;stroke-width:1.2;stroke-linecap:butt;stroke-linejoin:miter;stroke:rgb(0%,0%,0%);stroke-opacity:1;stroke-miterlimit:10;" d="M 221.105469 162.03125 L 207.867188 187.230469 "/>
<path style="fill:none;stroke-width:1.2;stroke-linecap:butt;stroke-linejoin:miter;stroke:rgb(0%,0%,0%);stroke-opacity:1;stroke-miterlimit:10;" d="M 223.070312 211.292969 L 251.511719 210.15625 "/>
<path style="fill:none;stroke-width:1.2;stroke-linecap:butt;stroke-linejoin:miter;stroke:rgb(0%,0%,0%);stroke-opacity:1;stroke-miterlimit:10;" d="M 251.511719 210.15625 L 264.75 184.957031 "/>
<path style="fill:none;stroke-width:1.2;stroke-linecap:butt;stroke-linejoin:miter;stroke:rgb(0%,0%,0%);stroke-opacity:1;stroke-miterlimit:10;" d="M 246.90625 204.523438 L 257.496094 184.363281 "/>
<path style="fill:none;stroke-width:1.2;stroke-linecap:butt;stroke-linejoin:miter;stroke:rgb(0%,0%,0%);stroke-opacity:1;stroke-miterlimit:10;" d="M 264.75 184.957031 L 249.546875 160.894531 "/>
<path style="fill:none;stroke-width:1.2;stroke-linecap:butt;stroke-linejoin:miter;stroke:rgb(0%,0%,0%);stroke-opacity:1;stroke-miterlimit:10;" d="M 249.546875 160.894531 L 221.105469 162.03125 "/>
<path style="fill:none;stroke-width:1.2;stroke-linecap:butt;stroke-linejoin:miter;stroke:rgb(0%,0%,0%);stroke-opacity:1;stroke-miterlimit:10;" d="M 246.96875 167.703125 L 224.214844 168.609375 "/>
<path style="fill:none;stroke-width:1.2;stroke-linecap:butt;stroke-linejoin:miter;stroke:rgb(0%,0%,0%);stroke-opacity:1;stroke-miterlimit:10;" d="M 135.777344 165.441406 L 120.574219 141.375 "/>
<path style="fill:none;stroke-width:1.2;stroke-linecap:butt;stroke-linejoin:miter;stroke:rgb(0%,0%,0%);stroke-opacity:1;stroke-miterlimit:10;" d="M 128.597656 166.609375 L 116.433594 147.359375 "/>
<path style="fill:none;stroke-width:1.2;stroke-linecap:butt;stroke-linejoin:miter;stroke:rgb(0%,0%,0%);stroke-opacity:1;stroke-miterlimit:10;" d="M 122.542969 190.636719 L 135.777344 165.441406 "/>
<path style="fill:none;stroke-width:1.2;stroke-linecap:butt;stroke-linejoin:miter;stroke:rgb(0%,0%,0%);stroke-opacity:1;stroke-miterlimit:10;" d="M 120.574219 141.375 L 92.132812 142.511719 "/>
<path style="fill:none;stroke-width:1.2;stroke-linecap:butt;stroke-linejoin:miter;stroke:rgb(0%,0%,0%);stroke-opacity:1;stroke-miterlimit:10;" d="M 92.132812 142.511719 L 78.894531 167.710938 "/>
<path style="fill:none;stroke-width:1.2;stroke-linecap:butt;stroke-linejoin:miter;stroke:rgb(0%,0%,0%);stroke-opacity:1;stroke-miterlimit:10;" d="M 96.738281 148.148438 L 86.148438 168.304688 "/>
<path style="fill:none;stroke-width:1.2;stroke-linecap:butt;stroke-linejoin:miter;stroke:rgb(0%,0%,0%);stroke-opacity:1;stroke-miterlimit:10;" d="M 78.894531 167.710938 L 94.101562 191.773438 "/>
<path style="fill:none;stroke-width:1.2;stroke-linecap:butt;stroke-linejoin:miter;stroke:rgb(0%,0%,0%);stroke-opacity:1;stroke-miterlimit:10;" d="M 78.894531 167.710938 L 64.675781 168.28125 "/>
<path style="fill:none;stroke-width:1.2;stroke-linecap:butt;stroke-linejoin:miter;stroke:rgb(0%,0%,100%);stroke-opacity:1;stroke-miterlimit:10;" d="M 64.675781 168.28125 L 50.453125 168.847656 "/>
<path style="fill:none;stroke-width:1.2;stroke-linecap:butt;stroke-linejoin:miter;stroke:rgb(0%,0%,0%);stroke-opacity:1;stroke-miterlimit:10;" d="M 94.101562 191.773438 L 122.542969 190.636719 "/>
<path style="fill:none;stroke-width:1.2;stroke-linecap:butt;stroke-linejoin:miter;stroke:rgb(0%,0%,0%);stroke-opacity:1;stroke-miterlimit:10;" d="M 96.675781 184.96875 L 119.429688 184.058594 "/>
<path style="fill:none;stroke-width:1.2;stroke-linecap:butt;stroke-linejoin:miter;stroke:rgb(0%,0%,100%);stroke-opacity:1;stroke-miterlimit:10;" d="M 50.453125 168.847656 L 42.851562 156.816406 "/>
<path style="fill:none;stroke-width:1.2;stroke-linecap:butt;stroke-linejoin:miter;stroke:rgb(0%,0%,0%);stroke-opacity:1;stroke-miterlimit:10;" d="M 42.851562 156.816406 L 35.25 144.785156 "/>
<path style="fill:none;stroke-width:1.2;stroke-linecap:butt;stroke-linejoin:miter;stroke:rgb(0%,0%,100%);stroke-opacity:1;stroke-miterlimit:10;" d="M 50.453125 168.847656 L 43.835938 181.445312 "/>
<path style="fill:none;stroke-width:1.2;stroke-linecap:butt;stroke-linejoin:miter;stroke:rgb(0%,0%,0%);stroke-opacity:1;stroke-miterlimit:10;" d="M 43.835938 181.445312 L 37.21875 194.046875 "/>
<path style=" stroke:none;fill-rule:nonzero;fill:rgb(100%,100%,100%);fill-opacity:1;" d="M 46.453125 162.347656 L 54.453125 162.347656 L 54.453125 175.347656 L 46.453125 175.347656 Z M 46.453125 162.347656 "/>
<g style="fill:rgb(0%,0%,100%);fill-opacity:1;">
  <use xlink:href="#glyph0-1" x="46.453125" y="172.249023"/>
</g>
</g>
</svg>

<svg xmlns="http://www.w3.org/2000/svg" xmlns:xlink="http://www.w3.org/1999/xlink" width="300pt" height="300pt" viewBox="0 0 300 300"><defs><symbol overflow="visible"><path d="M.547 1.938V-7.75h5.5v9.688zm.625-.61h4.266v-8.47H1.171zm0 0"/></symbol><symbol overflow="visible" id="a"><path d="M1.078-8.016h1.47l3.546 6.704v-6.704h1.062V0H5.688L2.124-6.703V0H1.078zm0 0"/></symbol><symbol overflow="visible" id="b"><path d="M1.078-8.016h1.094v3.282H6.11v-3.282h1.077V0H6.11v-3.813H2.17V0H1.078zm0 0"/></symbol></defs><g><path fill="#fff" d="M0 0h300v300H0z"/><path d="M203.934 88.707l7.6 12.03" stroke-width="1.2" stroke="#000" stroke-miterlimit="10" fill="none"/><path d="M211.535 100.738l7.602 12.032M219.137 112.77l-6.617 12.597" stroke-width="1.2" stroke="#00f" stroke-miterlimit="10" fill="none"/><path d="M212.52 125.367l-6.622 12.602" stroke-width="1.2" stroke="#000" stroke-miterlimit="10" fill="none"/><path d="M211.137 106.27h17v13h-17zm0 0" fill="#fff"/><g fill="#00f"><use xlink:href="#a" x="211.137" y="116.171"/><use xlink:href="#b" x="219.12" y="116.171"/></g><path d="M205.898 137.97l-14.218.565" stroke-width="1.2" stroke="#000" stroke-miterlimit="10" fill="none"/><path d="M191.68 138.535l-14.223.57" stroke-width="1.2" stroke="#00f" stroke-miterlimit="10" fill="none"/><path d="M203.324 144.773l-11.38.457" stroke-width="1.2" stroke="#000" stroke-miterlimit="10" fill="none"/><path d="M191.945 145.23l-11.375.454" stroke-width="1.2" stroke="#00f" stroke-miterlimit="10" fill="none"/><path d="M221.105 162.03l-15.207-24.06" stroke-width="1.2" stroke="#000" stroke-miterlimit="10" fill="none"/><path d="M177.457 139.105l-6.617 12.598" stroke-width="1.2" stroke="#00f" stroke-miterlimit="10" fill="none"/><path d="M170.84 151.703l-6.617 12.602" stroke-width="1.2" stroke="#000" stroke-miterlimit="10" fill="none"/><path d="M173.457 132.605h8v13h-8zm0 0" fill="#fff"/><use xlink:href="#a" x="173.457" y="142.507" fill="#00f"/><path d="M164.223 164.305l7.6 12.03" stroke-width="1.2" stroke="#000" stroke-miterlimit="10" fill="none"/><path d="M171.824 176.336l7.602 12.03" stroke-width="1.2" stroke="#00f" stroke-miterlimit="10" fill="none"/><path d="M171.402 163.133l6.082 9.625" stroke-width="1.2" stroke="#000" stroke-miterlimit="10" fill="none"/><path d="M177.484 172.758l6.082 9.625" stroke-width="1.2" stroke="#00f" stroke-miterlimit="10" fill="none"/><path d="M164.223 164.305l-28.446 1.136" stroke-width="1.2" stroke="#000" stroke-miterlimit="10" fill="none"/><path d="M179.426 188.367l14.22-.57" stroke-width="1.2" stroke="#00f" stroke-miterlimit="10" fill="none"/><path d="M193.645 187.797l14.222-.567" stroke-width="1.2" stroke="#000" stroke-miterlimit="10" fill="none"/><path d="M175.426 181.867h8v13h-8zm0 0" fill="#fff"/><use xlink:href="#a" x="175.426" y="191.769" fill="#00f"/><path d="M207.867 187.23l15.203 24.063M215.05 186.06l12.165 19.25M221.105 162.03l-13.238 25.2M223.07 211.293l28.442-1.137M251.512 210.156l13.238-25.2M246.906 204.523l10.59-20.16M264.75 184.957l-15.203-24.062M249.547 160.895l-28.442 1.136M246.97 167.703l-22.755.906M135.777 165.44l-15.203-24.065M128.598 166.61l-12.164-19.25M122.543 190.637l13.234-25.196M120.574 141.375l-28.44 1.137M92.133 142.512l-13.238 25.2M96.738 148.148l-10.59 20.157M78.895 167.71l15.207 24.063M78.895 167.71l-14.22.57" stroke-width="1.2" stroke="#000" stroke-miterlimit="10" fill="none"/><path d="M64.676 168.28l-14.223.568" stroke-width="1.2" stroke="#00f" stroke-miterlimit="10" fill="none"/><path d="M94.102 191.773l28.44-1.136M96.676 184.97l22.754-.91" stroke-width="1.2" stroke="#000" stroke-miterlimit="10" fill="none"/><path d="M50.453 168.848l-7.6-12.032" stroke-width="1.2" stroke="#00f" stroke-miterlimit="10" fill="none"/><path d="M42.852 156.816l-7.602-12.03" stroke-width="1.2" stroke="#000" stroke-miterlimit="10" fill="none"/><path d="M50.453 168.848l-6.617 12.597" stroke-width="1.2" stroke="#00f" stroke-miterlimit="10" fill="none"/><path d="M43.836 181.445l-6.617 12.602" stroke-width="1.2" stroke="#000" stroke-miterlimit="10" fill="none"/><path d="M46.453 162.348h8v13h-8zm0 0" fill="#fff"/><use xlink:href="#a" x="46.453" y="172.249" fill="#00f"/></g></svg>
